X: 41150
T: Tripper's, The
R: jig
M: 6/8
K: Amixolydian
cAA eAA|fdf ~e2d|cAc efg|BGB dcB|
cAA eAA|fdf e2f|gba gef|gdB GAB:|
Ace a2a|gfg ~a3|Ace agf|~g2e dBG|
Ace ~a3|gfg ~a3|gba gef|gdB GAB:|

